X: 5881
T: Spilt Mir Klezmorimlekh
O: Klezmer
F: https://www.youtube.com/watch?v=Fh48wdh-XSk
Z: Temple Aliyah Klezmer Band Song Book
M: 2/4
L: 1/8
K: Dm
"A" ^cd e2|"Dm"ff "A" e2|"Dm"dd "A"^c2|"Gm"BB "A"A2|^cd ee|
"Dm"f>e f/e/d|"A"e4|a2z2|^cd e2|"Dm"ff "A"e2|"Dm"dd "A"^c2|"Gm"BB "A"A2|
"Gm"GB AG|Gd ^cB|"A"A4-|A2 zA|"D"de ^fg|^fg/f/ ed|
"A7"e^f/e/ d^c|"D"d3 d|"Dm"df ed|da ^gf|"A"e4|a3A|
"Dm"f>e f/e/d|d>^c "D7"d/c/B|"Gm"B>A B/A/G|G3 G| GB AG|
Gd ^cB|"A"A2 ^c2|e2 a2|"Dm"f>e f/e/d|d>^c "D7"d/c/B|
"Gm"B>A B/A/G|G3 G|GB AG|Gd ^cB|"A"A2a2-|a2z2|
